images/68066.svg

<?xml version="1.0" encoding="UTF-8"?>
<svg xmlns="http://www.w3.org/2000/svg" xmlns:xlink="http://www.w3.org/1999/xlink" width="300pt" height="300pt" viewBox="0 0 300 300" version="1.1">
<defs>
<g>
<symbol overflow="visible" id="glyph0-0">
<path style="stroke:none;" d="M 0.453125 1.59375 L 0.453125 -6.34375 L 4.953125 -6.34375 L 4.953125 1.59375 Z M 0.953125 1.09375 L 4.453125 1.09375 L 4.453125 -5.84375 L 0.953125 -5.84375 Z M 0.953125 1.09375 "/>
</symbol>
<symbol overflow="visible" id="glyph0-1">
<path style="stroke:none;" d="M 3.546875 -5.953125 C 2.898438 -5.953125 2.382812 -5.710938 2 -5.234375 C 1.625 -4.753906 1.4375 -4.101562 1.4375 -3.28125 C 1.4375 -2.445312 1.625 -1.789062 2 -1.3125 C 2.382812 -0.832031 2.898438 -0.59375 3.546875 -0.59375 C 4.191406 -0.59375 4.703125 -0.832031 5.078125 -1.3125 C 5.453125 -1.789062 5.640625 -2.445312 5.640625 -3.28125 C 5.640625 -4.101562 5.453125 -4.753906 5.078125 -5.234375 C 4.703125 -5.710938 4.191406 -5.953125 3.546875 -5.953125 Z M 3.546875 -6.6875 C 4.460938 -6.6875 5.195312 -6.375 5.75 -5.75 C 6.300781 -5.132812 6.578125 -4.3125 6.578125 -3.28125 C 6.578125 -2.238281 6.300781 -1.410156 5.75 -0.796875 C 5.195312 -0.179688 4.460938 0.125 3.546875 0.125 C 2.617188 0.125 1.878906 -0.179688 1.328125 -0.796875 C 0.773438 -1.410156 0.5 -2.238281 0.5 -3.28125 C 0.5 -4.3125 0.773438 -5.132812 1.328125 -5.75 C 1.878906 -6.375 2.617188 -6.6875 3.546875 -6.6875 Z M 3.546875 -6.6875 "/>
</symbol>
<symbol overflow="visible" id="glyph0-2">
<path style="stroke:none;" d="M 0.890625 -6.5625 L 1.765625 -6.5625 L 1.765625 -3.875 L 5 -3.875 L 5 -6.5625 L 5.890625 -6.5625 L 5.890625 0 L 5 0 L 5 -3.125 L 1.765625 -3.125 L 1.765625 0 L 0.890625 0 Z M 0.890625 -6.5625 "/>
</symbol>
</g>
</defs>
<g id="surface42337">
<rect x="0" y="0" width="300" height="300" style="fill:rgb(100%,100%,100%);fill-opacity:1;stroke:none;"/>
<path style="fill:none;stroke-width:1.2;stroke-linecap:butt;stroke-linejoin:miter;stroke:rgb(0%,0%,0%);stroke-opacity:1;stroke-miterlimit:10;" d="M 99.324219 200.484375 L 89.867188 179.867188 "/>
<path style="fill:none;stroke-width:1.2;stroke-linecap:butt;stroke-linejoin:miter;stroke:rgb(0%,0%,0%);stroke-opacity:1;stroke-miterlimit:10;" d="M 89.867188 179.867188 L 67.285156 177.746094 "/>
<path style="fill:none;stroke-width:1.2;stroke-linecap:butt;stroke-linejoin:miter;stroke:rgb(0%,0%,0%);stroke-opacity:1;stroke-miterlimit:10;" d="M 88.109375 174.339844 L 70.042969 172.644531 "/>
<path style="fill:none;stroke-width:1.2;stroke-linecap:butt;stroke-linejoin:miter;stroke:rgb(0%,0%,0%);stroke-opacity:1;stroke-miterlimit:10;" d="M 102.996094 161.371094 L 89.867188 179.867188 "/>
<path style="fill:none;stroke-width:1.2;stroke-linecap:butt;stroke-linejoin:miter;stroke:rgb(0%,0%,0%);stroke-opacity:1;stroke-miterlimit:10;" d="M 67.285156 177.746094 L 57.832031 157.125 "/>
<path style="fill:none;stroke-width:1.2;stroke-linecap:butt;stroke-linejoin:miter;stroke:rgb(0%,0%,0%);stroke-opacity:1;stroke-miterlimit:10;" d="M 57.832031 157.125 L 70.960938 138.628906 "/>
<path style="fill:none;stroke-width:1.2;stroke-linecap:butt;stroke-linejoin:miter;stroke:rgb(0%,0%,0%);stroke-opacity:1;stroke-miterlimit:10;" d="M 63.496094 158.367188 L 74 143.570312 "/>
<path style="fill:none;stroke-width:1.2;stroke-linecap:butt;stroke-linejoin:miter;stroke:rgb(0%,0%,0%);stroke-opacity:1;stroke-miterlimit:10;" d="M 57.832031 157.125 L 46.542969 156.066406 "/>
<path style="fill:none;stroke-width:1.2;stroke-linecap:butt;stroke-linejoin:miter;stroke:rgb(100%,0%,0%);stroke-opacity:1;stroke-miterlimit:10;" d="M 46.542969 156.066406 L 35.25 155.003906 "/>
<path style="fill:none;stroke-width:1.2;stroke-linecap:butt;stroke-linejoin:miter;stroke:rgb(0%,0%,0%);stroke-opacity:1;stroke-miterlimit:10;" d="M 70.960938 138.628906 L 93.542969 140.75 "/>
<path style="fill:none;stroke-width:1.2;stroke-linecap:butt;stroke-linejoin:miter;stroke:rgb(0%,0%,0%);stroke-opacity:1;stroke-miterlimit:10;" d="M 70.960938 138.628906 L 61.507812 118.011719 "/>
<path style="fill:none;stroke-width:1.2;stroke-linecap:butt;stroke-linejoin:miter;stroke:rgb(0%,0%,0%);stroke-opacity:1;stroke-miterlimit:10;" d="M 93.542969 140.75 L 102.996094 161.371094 "/>
<path style="fill:none;stroke-width:1.2;stroke-linecap:butt;stroke-linejoin:miter;stroke:rgb(0%,0%,0%);stroke-opacity:1;stroke-miterlimit:10;" d="M 89.636719 145.039062 L 97.199219 161.53125 "/>
<path style="fill:none;stroke-width:1.2;stroke-linecap:butt;stroke-linejoin:miter;stroke:rgb(0%,0%,0%);stroke-opacity:1;stroke-miterlimit:10;" d="M 93.542969 140.75 L 100.109375 131.503906 "/>
<path style="fill:none;stroke-width:1.2;stroke-linecap:butt;stroke-linejoin:miter;stroke:rgb(100%,0%,0%);stroke-opacity:1;stroke-miterlimit:10;" d="M 100.109375 131.503906 L 106.671875 122.253906 "/>
<path style="fill:none;stroke-width:1.2;stroke-linecap:butt;stroke-linejoin:miter;stroke:rgb(0%,0%,0%);stroke-opacity:1;stroke-miterlimit:10;" d="M 102.996094 161.371094 L 125.582031 163.492188 "/>
<path style="fill:none;stroke-width:1.2;stroke-linecap:butt;stroke-linejoin:miter;stroke:rgb(0%,0%,0%);stroke-opacity:1;stroke-miterlimit:10;" d="M 123.15625 164.601562 L 127.882812 174.914062 "/>
<path style="fill:none;stroke-width:1.2;stroke-linecap:butt;stroke-linejoin:miter;stroke:rgb(100%,0%,0%);stroke-opacity:1;stroke-miterlimit:10;" d="M 127.882812 174.914062 L 132.609375 185.222656 "/>
<path style="fill:none;stroke-width:1.2;stroke-linecap:butt;stroke-linejoin:miter;stroke:rgb(0%,0%,0%);stroke-opacity:1;stroke-miterlimit:10;" d="M 128.003906 162.378906 L 132.734375 172.6875 "/>
<path style="fill:none;stroke-width:1.2;stroke-linecap:butt;stroke-linejoin:miter;stroke:rgb(100%,0%,0%);stroke-opacity:1;stroke-miterlimit:10;" d="M 132.734375 172.6875 L 137.460938 182.996094 "/>
<path style="fill:none;stroke-width:1.2;stroke-linecap:butt;stroke-linejoin:miter;stroke:rgb(0%,0%,0%);stroke-opacity:1;stroke-miterlimit:10;" d="M 125.582031 163.492188 L 132.144531 154.242188 "/>
<path style="fill:none;stroke-width:1.2;stroke-linecap:butt;stroke-linejoin:miter;stroke:rgb(100%,0%,0%);stroke-opacity:1;stroke-miterlimit:10;" d="M 132.144531 154.242188 L 138.707031 144.996094 "/>
<path style=" stroke:none;fill-rule:nonzero;fill:rgb(100%,100%,100%);fill-opacity:1;" d="M 131.035156 178.609375 L 139.035156 178.609375 L 139.035156 189.609375 L 131.035156 189.609375 Z M 131.035156 178.609375 "/>
<g style="fill:rgb(100%,0%,0%);fill-opacity:1;">
  <use xlink:href="#glyph0-1" x="131.035156" y="187.272461"/>
</g>
<path style="fill:none;stroke-width:1.2;stroke-linecap:butt;stroke-linejoin:miter;stroke:rgb(100%,0%,0%);stroke-opacity:1;stroke-miterlimit:10;" d="M 138.707031 144.996094 L 150 146.054688 "/>
<path style="fill:none;stroke-width:1.2;stroke-linecap:butt;stroke-linejoin:miter;stroke:rgb(0%,0%,0%);stroke-opacity:1;stroke-miterlimit:10;" d="M 150 146.054688 L 161.292969 147.117188 "/>
<path style=" stroke:none;fill-rule:nonzero;fill:rgb(100%,100%,100%);fill-opacity:1;" d="M 134.707031 139.496094 L 142.707031 139.496094 L 142.707031 150.496094 L 134.707031 150.496094 Z M 134.707031 139.496094 "/>
<g style="fill:rgb(100%,0%,0%);fill-opacity:1;">
  <use xlink:href="#glyph0-1" x="134.707031" y="148.15918"/>
</g>
<path style="fill:none;stroke-width:1.2;stroke-linecap:butt;stroke-linejoin:miter;stroke:rgb(0%,0%,0%);stroke-opacity:1;stroke-miterlimit:10;" d="M 161.292969 147.117188 L 170.746094 167.734375 "/>
<path style="fill:none;stroke-width:1.2;stroke-linecap:butt;stroke-linejoin:miter;stroke:rgb(0%,0%,0%);stroke-opacity:1;stroke-miterlimit:10;" d="M 167.089844 146.953125 L 174.652344 163.449219 "/>
<path style="fill:none;stroke-width:1.2;stroke-linecap:butt;stroke-linejoin:miter;stroke:rgb(0%,0%,0%);stroke-opacity:1;stroke-miterlimit:10;" d="M 174.417969 128.621094 L 161.292969 147.117188 "/>
<path style="fill:none;stroke-width:1.2;stroke-linecap:butt;stroke-linejoin:miter;stroke:rgb(0%,0%,0%);stroke-opacity:1;stroke-miterlimit:10;" d="M 170.746094 167.734375 L 193.328125 169.855469 "/>
<path style="fill:none;stroke-width:1.2;stroke-linecap:butt;stroke-linejoin:miter;stroke:rgb(0%,0%,0%);stroke-opacity:1;stroke-miterlimit:10;" d="M 170.746094 167.734375 L 157.617188 186.230469 "/>
<path style="fill:none;stroke-width:1.2;stroke-linecap:butt;stroke-linejoin:miter;stroke:rgb(0%,0%,0%);stroke-opacity:1;stroke-miterlimit:10;" d="M 193.328125 169.855469 L 206.457031 151.359375 "/>
<path style="fill:none;stroke-width:1.2;stroke-linecap:butt;stroke-linejoin:miter;stroke:rgb(0%,0%,0%);stroke-opacity:1;stroke-miterlimit:10;" d="M 190.289062 164.917969 L 200.792969 150.121094 "/>
<path style="fill:none;stroke-width:1.2;stroke-linecap:butt;stroke-linejoin:miter;stroke:rgb(0%,0%,0%);stroke-opacity:1;stroke-miterlimit:10;" d="M 193.328125 169.855469 L 198.054688 180.164062 "/>
<path style="fill:none;stroke-width:1.2;stroke-linecap:butt;stroke-linejoin:miter;stroke:rgb(100%,0%,0%);stroke-opacity:1;stroke-miterlimit:10;" d="M 198.054688 180.164062 L 202.78125 190.472656 "/>
<path style="fill:none;stroke-width:1.2;stroke-linecap:butt;stroke-linejoin:miter;stroke:rgb(0%,0%,0%);stroke-opacity:1;stroke-miterlimit:10;" d="M 206.457031 151.359375 L 197.003906 130.742188 "/>
<path style="fill:none;stroke-width:1.2;stroke-linecap:butt;stroke-linejoin:miter;stroke:rgb(0%,0%,0%);stroke-opacity:1;stroke-miterlimit:10;" d="M 206.457031 151.359375 L 229.039062 153.480469 "/>
<path style="fill:none;stroke-width:1.2;stroke-linecap:butt;stroke-linejoin:miter;stroke:rgb(0%,0%,0%);stroke-opacity:1;stroke-miterlimit:10;" d="M 197.003906 130.742188 L 174.417969 128.621094 "/>
<path style="fill:none;stroke-width:1.2;stroke-linecap:butt;stroke-linejoin:miter;stroke:rgb(0%,0%,0%);stroke-opacity:1;stroke-miterlimit:10;" d="M 194.246094 135.84375 L 176.179688 134.144531 "/>
<path style="fill:none;stroke-width:1.2;stroke-linecap:butt;stroke-linejoin:miter;stroke:rgb(0%,0%,0%);stroke-opacity:1;stroke-miterlimit:10;" d="M 197.003906 130.742188 L 210.132812 112.246094 "/>
<path style="fill:none;stroke-width:1.2;stroke-linecap:butt;stroke-linejoin:miter;stroke:rgb(0%,0%,0%);stroke-opacity:1;stroke-miterlimit:10;" d="M 226.613281 154.59375 L 231.339844 164.902344 "/>
<path style="fill:none;stroke-width:1.2;stroke-linecap:butt;stroke-linejoin:miter;stroke:rgb(100%,0%,0%);stroke-opacity:1;stroke-miterlimit:10;" d="M 231.339844 164.902344 L 236.066406 175.210938 "/>
<path style="fill:none;stroke-width:1.2;stroke-linecap:butt;stroke-linejoin:miter;stroke:rgb(0%,0%,0%);stroke-opacity:1;stroke-miterlimit:10;" d="M 231.464844 152.367188 L 236.191406 162.675781 "/>
<path style="fill:none;stroke-width:1.2;stroke-linecap:butt;stroke-linejoin:miter;stroke:rgb(100%,0%,0%);stroke-opacity:1;stroke-miterlimit:10;" d="M 236.191406 162.675781 L 240.917969 172.984375 "/>
<path style="fill:none;stroke-width:1.2;stroke-linecap:butt;stroke-linejoin:miter;stroke:rgb(0%,0%,0%);stroke-opacity:1;stroke-miterlimit:10;" d="M 229.039062 153.480469 L 235.601562 144.234375 "/>
<path style="fill:none;stroke-width:1.2;stroke-linecap:butt;stroke-linejoin:miter;stroke:rgb(100%,0%,0%);stroke-opacity:1;stroke-miterlimit:10;" d="M 235.601562 144.234375 L 242.167969 134.984375 "/>
<path style=" stroke:none;fill-rule:nonzero;fill:rgb(100%,100%,100%);fill-opacity:1;" d="M 234.492188 168.597656 L 242.492188 168.597656 L 242.492188 179.597656 L 234.492188 179.597656 Z M 234.492188 168.597656 "/>
<g style="fill:rgb(100%,0%,0%);fill-opacity:1;">
  <use xlink:href="#glyph0-1" x="234.492188" y="177.260742"/>
</g>
<path style="fill:none;stroke-width:1.2;stroke-linecap:butt;stroke-linejoin:miter;stroke:rgb(100%,0%,0%);stroke-opacity:1;stroke-miterlimit:10;" d="M 242.167969 134.984375 L 253.457031 136.046875 "/>
<path style="fill:none;stroke-width:1.2;stroke-linecap:butt;stroke-linejoin:miter;stroke:rgb(0%,0%,0%);stroke-opacity:1;stroke-miterlimit:10;" d="M 253.457031 136.046875 L 264.75 137.105469 "/>
<path style=" stroke:none;fill-rule:nonzero;fill:rgb(100%,100%,100%);fill-opacity:1;" d="M 238.167969 129.484375 L 246.167969 129.484375 L 246.167969 140.484375 L 238.167969 140.484375 Z M 238.167969 129.484375 "/>
<g style="fill:rgb(100%,0%,0%);fill-opacity:1;">
  <use xlink:href="#glyph0-1" x="238.167969" y="138.147461"/>
</g>
<path style=" stroke:none;fill-rule:nonzero;fill:rgb(100%,100%,100%);fill-opacity:1;" d="M 195.78125 184.972656 L 210.78125 184.972656 L 210.78125 195.972656 L 195.78125 195.972656 Z M 195.78125 184.972656 "/>
<g style="fill:rgb(100%,0%,0%);fill-opacity:1;">
  <use xlink:href="#glyph0-1" x="195.78125" y="193.635742"/>
  <use xlink:href="#glyph0-2" x="203.123047" y="193.635742"/>
</g>
<path style=" stroke:none;fill-rule:nonzero;fill:rgb(100%,100%,100%);fill-opacity:1;" d="M 99.671875 116.753906 L 114.671875 116.753906 L 114.671875 127.753906 L 99.671875 127.753906 Z M 99.671875 116.753906 "/>
<g style="fill:rgb(100%,0%,0%);fill-opacity:1;">
  <use xlink:href="#glyph0-1" x="99.671875" y="125.416992"/>
  <use xlink:href="#glyph0-2" x="107.013672" y="125.416992"/>
</g>
<path style="fill:none;stroke-width:1.2;stroke-linecap:butt;stroke-linejoin:miter;stroke:rgb(0%,0%,0%);stroke-opacity:1;stroke-miterlimit:10;" d="M 63.683594 119.558594 L 70.246094 110.308594 "/>
<path style="fill:none;stroke-width:1.2;stroke-linecap:butt;stroke-linejoin:miter;stroke:rgb(100%,0%,0%);stroke-opacity:1;stroke-miterlimit:10;" d="M 70.246094 110.308594 L 76.8125 101.0625 "/>
<path style="fill:none;stroke-width:1.2;stroke-linecap:butt;stroke-linejoin:miter;stroke:rgb(0%,0%,0%);stroke-opacity:1;stroke-miterlimit:10;" d="M 59.332031 116.46875 L 65.894531 107.21875 "/>
<path style="fill:none;stroke-width:1.2;stroke-linecap:butt;stroke-linejoin:miter;stroke:rgb(100%,0%,0%);stroke-opacity:1;stroke-miterlimit:10;" d="M 65.894531 107.21875 L 72.460938 97.972656 "/>
<path style=" stroke:none;fill-rule:nonzero;fill:rgb(100%,100%,100%);fill-opacity:1;" d="M 70.636719 94.015625 L 78.636719 94.015625 L 78.636719 105.015625 L 70.636719 105.015625 Z M 70.636719 94.015625 "/>
<g style="fill:rgb(100%,0%,0%);fill-opacity:1;">
  <use xlink:href="#glyph0-1" x="70.636719" y="102.678711"/>
</g>
<path style=" stroke:none;fill-rule:nonzero;fill:rgb(100%,100%,100%);fill-opacity:1;" d="M 20.25 149.503906 L 35.25 149.503906 L 35.25 160.503906 L 20.25 160.503906 Z M 20.25 149.503906 "/>
<g style="fill:rgb(100%,0%,0%);fill-opacity:1;">
  <use xlink:href="#glyph0-2" x="20.25" y="158.166992"/>
  <use xlink:href="#glyph0-1" x="27.264648" y="158.166992"/>
</g>
</g>
</svg>

<svg xmlns="http://www.w3.org/2000/svg" xmlns:xlink="http://www.w3.org/1999/xlink" width="300pt" height="300pt" viewBox="0 0 300 300"><defs><symbol overflow="visible"><path d="M.453 1.594v-7.938h4.5v7.938zm.5-.5h3.5v-6.938h-3.5zm0 0"/></symbol><symbol overflow="visible" id="a"><path d="M3.547-5.953c-.65 0-1.164.242-1.547.72-.375.48-.563 1.13-.563 1.952 0 .835.188 1.49.563 1.967.383.48.898.72 1.547.72.644 0 1.156-.24 1.53-.72.376-.476.564-1.132.564-1.968 0-.822-.187-1.474-.562-1.954-.375-.477-.887-.72-1.53-.72zm0-.734c.914 0 1.648.312 2.203.937.55.617.828 1.438.828 2.47 0 1.042-.277 1.87-.828 2.483-.555.617-1.29.922-2.203.922-.93 0-1.668-.305-2.22-.922C.774-1.41.5-2.237.5-3.28c0-1.033.273-1.853.828-2.47.55-.625 1.29-.938 2.22-.938zm0 0"/></symbol><symbol overflow="visible" id="b"><path d="M.89-6.563h.876v2.688H5v-2.688h.89V0H5v-3.125H1.766V0H.89zm0 0"/></symbol></defs><g><path fill="#fff" d="M0 0h300v300H0z"/><path d="M99.324 200.484l-9.457-20.617M89.867 179.867l-22.582-2.12M88.11 174.34l-18.067-1.695M102.996 161.37l-13.13 18.497M67.285 177.746l-9.453-20.62M57.832 157.125l13.13-18.496M63.496 158.367L74 143.57M57.832 157.125l-11.29-1.06" stroke-width="1.2" stroke="#000" stroke-miterlimit="10" fill="none"/><path d="M46.543 156.066l-11.293-1.062" stroke-width="1.2" stroke="#f00" stroke-miterlimit="10" fill="none"/><path d="M70.96 138.63l22.583 2.12M70.96 138.63L61.51 118.01M93.543 140.75l9.453 20.62M89.637 145.04l7.562 16.49M93.543 140.75l6.566-9.246" stroke-width="1.2" stroke="#000" stroke-miterlimit="10" fill="none"/><path d="M100.11 131.504l6.562-9.25" stroke-width="1.2" stroke="#f00" stroke-miterlimit="10" fill="none"/><path d="M102.996 161.37l22.586 2.122M123.156 164.602l4.727 10.312" stroke-width="1.2" stroke="#000" stroke-miterlimit="10" fill="none"/><path d="M127.883 174.914l4.726 10.31" stroke-width="1.2" stroke="#f00" stroke-miterlimit="10" fill="none"/><path d="M128.004 162.38l4.73 10.308" stroke-width="1.2" stroke="#000" stroke-miterlimit="10" fill="none"/><path d="M132.734 172.688l4.727 10.308" stroke-width="1.2" stroke="#f00" stroke-miterlimit="10" fill="none"/><path d="M125.582 163.492l6.563-9.25" stroke-width="1.2" stroke="#000" stroke-miterlimit="10" fill="none"/><path d="M132.145 154.242l6.562-9.246" stroke-width="1.2" stroke="#f00" stroke-miterlimit="10" fill="none"/><path d="M131.035 178.61h8v11h-8zm0 0" fill="#fff"/><use xlink:href="#a" x="131.035" y="187.272" fill="#f00"/><path d="M138.707 144.996l11.293 1.06" stroke-width="1.2" stroke="#f00" stroke-miterlimit="10" fill="none"/><path d="M150 146.055l11.293 1.062" stroke-width="1.2" stroke="#000" stroke-miterlimit="10" fill="none"/><path d="M134.707 139.496h8v11h-8zm0 0" fill="#fff"/><use xlink:href="#a" x="134.707" y="148.159" fill="#f00"/><path d="M161.293 147.117l9.453 20.617M167.09 146.953l7.562 16.496M174.418 128.62l-13.125 18.497M170.746 167.734l22.582 2.12M170.746 167.734l-13.13 18.496M193.328 169.855l13.13-18.496M190.29 164.918l10.503-14.797M193.328 169.855l4.727 10.31" stroke-width="1.2" stroke="#000" stroke-miterlimit="10" fill="none"/><path d="M198.055 180.164l4.726 10.31" stroke-width="1.2" stroke="#f00" stroke-miterlimit="10" fill="none"/><path d="M206.457 151.36l-9.453-20.618M206.457 151.36l22.582 2.12M197.004 130.742l-22.586-2.12M194.246 135.844l-18.066-1.7M197.004 130.742l13.13-18.496M226.613 154.594l4.727 10.308" stroke-width="1.2" stroke="#000" stroke-miterlimit="10" fill="none"/><path d="M231.34 164.902l4.726 10.31" stroke-width="1.2" stroke="#f00" stroke-miterlimit="10" fill="none"/><path d="M231.465 152.367l4.726 10.31" stroke-width="1.2" stroke="#000" stroke-miterlimit="10" fill="none"/><path d="M236.19 162.676l4.728 10.308" stroke-width="1.2" stroke="#f00" stroke-miterlimit="10" fill="none"/><path d="M229.04 153.48l6.562-9.246" stroke-width="1.2" stroke="#000" stroke-miterlimit="10" fill="none"/><path d="M235.602 144.234l6.566-9.25" stroke-width="1.2" stroke="#f00" stroke-miterlimit="10" fill="none"/><path d="M234.492 168.598h8v11h-8zm0 0" fill="#fff"/><use xlink:href="#a" x="234.492" y="177.261" fill="#f00"/><path d="M242.168 134.984l11.29 1.063" stroke-width="1.2" stroke="#f00" stroke-miterlimit="10" fill="none"/><path d="M253.457 136.047l11.293 1.058" stroke-width="1.2" stroke="#000" stroke-miterlimit="10" fill="none"/><path d="M238.168 129.484h8v11h-8zm0 0" fill="#fff"/><use xlink:href="#a" x="238.168" y="138.147" fill="#f00"/><path d="M195.78 184.973h15v11h-15zm0 0" fill="#fff"/><g fill="#f00"><use xlink:href="#a" x="195.781" y="193.636"/><use xlink:href="#b" x="203.123" y="193.636"/></g><path d="M99.672 116.754h15v11h-15zm0 0" fill="#fff"/><g fill="#f00"><use xlink:href="#a" x="99.672" y="125.417"/><use xlink:href="#b" x="107.014" y="125.417"/></g><path d="M63.684 119.56l6.562-9.25" stroke-width="1.2" stroke="#000" stroke-miterlimit="10" fill="none"/><path d="M70.246 110.31l6.567-9.248" stroke-width="1.2" stroke="#f00" stroke-miterlimit="10" fill="none"/><path d="M59.332 116.47l6.563-9.25" stroke-width="1.2" stroke="#000" stroke-miterlimit="10" fill="none"/><path d="M65.895 107.22l6.566-9.247" stroke-width="1.2" stroke="#f00" stroke-miterlimit="10" fill="none"/><path d="M70.637 94.016h8v11h-8zm0 0" fill="#fff"/><use xlink:href="#a" x="70.637" y="102.679" fill="#f00"/><path d="M20.25 149.504h15v11h-15zm0 0" fill="#fff"/><g fill="#f00"><use xlink:href="#b" x="20.25" y="158.167"/><use xlink:href="#a" x="27.265" y="158.167"/></g></g></svg>
